src/icons/icons_set_04/040-imprimante.svg

<svg height="50" viewBox="0 0 50 50" width="50" xmlns="http://www.w3.org/2000/svg"><g fill="none" transform="translate(3.995 3.995)"><path d="m34.0556065 15.7837571h-26.10121305c-5.21790874 0-7.82769662 2.6106215-7.82936369 7.8318643v13.0506066h7.82936369v-8.286228h26.10121305v8.286228h7.8293637v-13.0506066c0-4.4685637-2.6106214-7.8318643-7.8293637-7.8318643z" fill="#000"/><rect height="38" rx="5" stroke="#000" stroke-width="4" width="22.995" x="9.5075" y="2.005"/></g></svg>

<?xml version="1.0" encoding="UTF-8"?>
<svg width="50px" height="50px" viewBox="0 0 50 50" version="1.1" xmlns="http://www.w3.org/2000/svg" xmlns:xlink="http://www.w3.org/1999/xlink">
    <!-- Generator: Sketch 52.2 (67145) - http://www.bohemiancoding.com/sketch -->
    <title>040-imprimante</title>
    <desc>Created with Sketch.</desc>
    <g id="040-imprimante" stroke="none" stroke-width="1" fill="none" fill-rule="evenodd">
        <g id="Group" transform="translate(3.995000, 3.995000)" fill-rule="nonzero">
            <g id="074-imprimante">
                <g id="ICONSET-01">
                    <g id="074-imprimante">
                        <path d="M34.0556065,15.7837571 L7.95439345,15.7837571 C2.73648471,15.7837571 0.126696825,18.3943786 0.125029762,23.6156214 L0.125029762,36.666228 L7.95439345,36.666228 L7.95439345,28.38 L34.0556065,28.38 L34.0556065,36.666228 L41.8849702,36.666228 L41.8849702,23.6156214 C41.8849702,19.1470577 39.2743488,15.7837571 34.0556065,15.7837571 Z" id="Shape" fill="#000000"></path>
                        <rect id="Rectangle-2" stroke="#000000" stroke-width="4" x="9.5075" y="2.005" width="22.995" height="38" rx="5"></rect>
                    </g>
                </g>
            </g>
        </g>
    </g>
</svg>
